img/part5/1_糖炒栗子日文標.svg

<svg width="25" height="84" fill="none" xmlns="http://www.w3.org/2000/svg"><path d="M11.622 9.546c.504.468.918.936.918 1.314 0 .252-.108.45-.378.81-.702.9-3.294 3.618-4.266 4.77-.36.45-.522.792-.522 1.152 0 .36.216.792.648 1.17 2.124 1.8 3.528 3.186 4.23 4.32.468.774.666 1.188.9 1.584.198.342.576.63 1.044.63.936 0 1.26-.666 1.26-1.242 0-.612-.234-1.188-.846-1.98-1.224-1.548-3.24-2.736-4.968-3.942-.378-.27-.648-.504-.648-.774 0-.216.162-.45.648-.918.756-.756 2.88-2.484 4.194-3.402.792-.522 1.332-.666 1.332-1.224 0-.648-.828-1.692-1.872-2.196-.432-.234-.954-.306-1.512-.342l-.162.27ZM7.77 36.392c.306.576.738 1.116 1.206 1.116.666 0 2.556-.468 3.51-.774.72-.234.702-.486 1.08-.486.864 0 2.286 1.134 2.286 1.89 0 .504-.648.648-1.242 1.062-1.188.792-3.402 2.7-4.086 3.402-.198.198-.09.324.09.27.612-.198 1.62-.594 3.024-.594 2.43 0 4.446 1.512 4.428 4.212-.018 2.412-2.16 4.338-5.868 4.338-2.088 0-3.654-.918-3.654-2.466 0-1.206 1.062-1.98 2.394-1.98 1.296 0 2.88.774 3.204 2.754l-1.692.324c-.162-1.332-.936-2.232-1.98-2.232-.684 0-1.116.36-1.116.918 0 .666.81 1.098 2.196 1.098 3.348 0 4.626-1.602 4.644-3.402.018-1.602-1.044-2.808-3.114-2.808-2.466 0-4.176 1.782-5.706 3.762-.432.576-.63.72-1.062.72-.396-.018-.792-.486-.756-1.17.036-.486.306-.9.918-1.458 1.764-1.728 5.526-5.31 6.48-6.57.306-.396.108-.54-.18-.486-.666.126-1.764.738-2.466 1.134-.342.198-.63.486-1.026.486-1.044 0-1.854-1.224-1.908-1.872-.036-.396.018-.72.144-1.152l.252-.036Zm-.828 26.216.27-.072c.324.522.558.936 1.098.936.72 0 2.124-.432 2.898-.702.72-.252.954-.576 1.296-.576.684 0 2.196 1.062 2.196 1.764 0 .504-.756.738-1.296 1.296-.756.756-2.178 2.682-2.898 3.978-.774 1.422-1.872 4.104-2.358 4.788-.72 1.116-1.314 1.602-2.304 1.602-1.062 0-1.8-1.71-1.638-3.186.27-2.322 3.816-3.654 6.21-3.654 2.916 0 5.022.72 6.552 1.494.918.468 1.908 1.134 2.466 1.638.432.414.72.81.702 1.548 0 .468-.27.936-.936.936-.792 0-1.404-1.026-2.898-2.214-1.242-.972-3.042-2.376-6.75-2.376-2.178 0-4.248 1.134-4.5 2.322-.126.648.306 1.404.702 1.404.396 0 .648-.198 1.062-.792.558-.792 1.656-2.718 2.088-3.474.864-1.548 2.592-4.374 2.898-4.986.162-.342.018-.486-.288-.378-.522.18-1.314.648-1.818.972-.288.18-.612.504-1.008.504-.792 0-1.764-1.08-1.836-1.728-.018-.342.036-.738.09-1.044Zm8.334 4.914-.018-.234c.342-.234.81-.414 1.224-.396.846.018 1.836.81 1.836 1.332 0 .324-.09.72-.144 1.098-.09.576-.288 1.674-.648 2.682-1.008 2.97-3.69 4.662-7.578 5.256l-.162-.324c3.348-1.206 5.256-3.24 6.102-5.904.306-.918.414-1.962.396-2.538 0-.306-.036-.45-.27-.63-.18-.144-.414-.252-.738-.342Z" fill="#fff"/><path stroke="#F1F1F1" d="M.5.5h24v83H.5z"/></svg>

<svg width="25" height="84" viewBox="0 0 25 84" fill="none" xmlns="http://www.w3.org/2000/svg"><path d="M11.622 9.546C12.126 10.014 12.54 10.482 12.54 10.86C12.54 11.112 12.432 11.31 12.162 11.67C11.46 12.57 8.868 15.288 7.896 16.44C7.536 16.89 7.374 17.232 7.374 17.592C7.374 17.952 7.59 18.384 8.022 18.762C10.146 20.562 11.55 21.948 12.252 23.082C12.72 23.856 12.918 24.27 13.152 24.666C13.35 25.008 13.728 25.296 14.196 25.296C15.132 25.296 15.456 24.63 15.456 24.054C15.456 23.442 15.222 22.866 14.61 22.074C13.386 20.526 11.37 19.338 9.642 18.132C9.264 17.862 8.994 17.628 8.994 17.358C8.994 17.142 9.156 16.908 9.642 16.44C10.398 15.684 12.522 13.956 13.836 13.038C14.628 12.516 15.168 12.372 15.168 11.814C15.168 11.166 14.34 10.122 13.296 9.618C12.864 9.384 12.342 9.312 11.784 9.276L11.622 9.546ZM7.77 36.392C8.076 36.968 8.508 37.508 8.976 37.508C9.642 37.508 11.532 37.04 12.486 36.734C13.206 36.5 13.188 36.248 13.566 36.248C14.43 36.248 15.852 37.382 15.852 38.138C15.852 38.642 15.204 38.786 14.61 39.2C13.422 39.992 11.208 41.9 10.524 42.602C10.326 42.8 10.434 42.926 10.614 42.872C11.226 42.674 12.234 42.278 13.638 42.278C16.068 42.278 18.084 43.79 18.066 46.49C18.048 48.902 15.906 50.828 12.198 50.828C10.11 50.828 8.544 49.91 8.544 48.362C8.544 47.156 9.606 46.382 10.938 46.382C12.234 46.382 13.818 47.156 14.142 49.136L12.45 49.46C12.288 48.128 11.514 47.228 10.47 47.228C9.786 47.228 9.354 47.588 9.354 48.146C9.354 48.812 10.164 49.244 11.55 49.244C14.898 49.244 16.176 47.642 16.194 45.842C16.212 44.24 15.15 43.034 13.08 43.034C10.614 43.034 8.904 44.816 7.374 46.796C6.942 47.372 6.744 47.516 6.312 47.516C5.916 47.498 5.52 47.03 5.556 46.346C5.592 45.86 5.862 45.446 6.474 44.888C8.238 43.16 12 39.578 12.954 38.318C13.26 37.922 13.062 37.778 12.774 37.832C12.108 37.958 11.01 38.57 10.308 38.966C9.966 39.164 9.678 39.452 9.282 39.452C8.238 39.452 7.428 38.228 7.374 37.58C7.338 37.184 7.392 36.86 7.518 36.428L7.77 36.392ZM6.942 62.608L7.212 62.536C7.536 63.058 7.77 63.472 8.31 63.472C9.03 63.472 10.434 63.04 11.208 62.77C11.928 62.518 12.162 62.194 12.504 62.194C13.188 62.194 14.7 63.256 14.7 63.958C14.7 64.462 13.944 64.696 13.404 65.254C12.648 66.01 11.226 67.936 10.506 69.232C9.732 70.654 8.634 73.336 8.148 74.02C7.428 75.136 6.834 75.622 5.844 75.622C4.782 75.622 4.044 73.912 4.206 72.436C4.476 70.114 8.022 68.782 10.416 68.782C13.332 68.782 15.438 69.502 16.968 70.276C17.886 70.744 18.876 71.41 19.434 71.914C19.866 72.328 20.154 72.724 20.136 73.462C20.136 73.93 19.866 74.398 19.2 74.398C18.408 74.398 17.796 73.372 16.302 72.184C15.06 71.212 13.26 69.808 9.552 69.808C7.374 69.808 5.304 70.942 5.052 72.13C4.926 72.778 5.358 73.534 5.754 73.534C6.15 73.534 6.402 73.336 6.816 72.742C7.374 71.95 8.472 70.024 8.904 69.268C9.768 67.72 11.496 64.894 11.802 64.282C11.964 63.94 11.82 63.796 11.514 63.904C10.992 64.084 10.2 64.552 9.696 64.876C9.408 65.056 9.084 65.38 8.688 65.38C7.896 65.38 6.924 64.3 6.852 63.652C6.834 63.31 6.888 62.914 6.942 62.608ZM15.276 67.522L15.258 67.288C15.6 67.054 16.068 66.874 16.482 66.892C17.328 66.91 18.318 67.702 18.318 68.224C18.318 68.548 18.228 68.944 18.174 69.322C18.084 69.898 17.886 70.996 17.526 72.004C16.518 74.974 13.836 76.666 9.948 77.26L9.786 76.936C13.134 75.73 15.042 73.696 15.888 71.032C16.194 70.114 16.302 69.07 16.284 68.494C16.284 68.188 16.248 68.044 16.014 67.864C15.834 67.72 15.6 67.612 15.276 67.522Z" fill="white"></path><rect x="0.5" y="0.5" width="24" height="83" stroke="#F1F1F1"></rect></svg>
